X: 012224
T: Aldridge's
S: Colclough Collection
L: 1/8
M: 4/4
R: hornpipe
Q: 1/4=160
K: G
zD |G2G2 GABc |dBcA GBAG |A2A2 Afed |cBAG FAFD |
G2G2 GABc |dBcA Ggfe |fafd egec |d2d2d2 :|
zB |A2A2 Afed |cBAG FAFD | d2d2 d2 ef |gedc BdBG |
e2e2 egfe |d2d2 dedc |ecdB cAGF |G2G2G2 :|
